X: 41012
T: Trip To Guadeloupe
R: hornpipe
M: 4/4
K: Dmajor
Addf a2 f2|dagf f2e2|Acce a2 e2|cedc B2A2|
DFAd fdAF|GBef g2 ag|(3fga fd Agec|d2dc d4:|
|:affe ^d3 =c|BAGF G4|geed c3B|AGFE F4|
DFAd fdAF|GBef g2ag|(3fga fd Bgec|d2dc d4:|

